docs/docs/assets/cursor-light.svg

<svg xmlns="http://www.w3.org/2000/svg" width="800" height="146pt" viewBox="0 0 600 146"><g fill="#26241e"><path d="M60.66 0h3.76c18.25 10.62 36.57 21.12 54.83 31.72 1.99 1.29 4.29 2.46 5.47 4.62.62 2.83.34 5.76.39 8.64-.04 18.65-.03 37.3 0 55.95-.04 1.91.03 3.86-.38 5.75-1.2 1.86-3.23 2.94-5.05 4.09-15.65 8.95-31.23 18.03-46.83 27.06-3.32 1.85-6.49 4.08-10.11 5.34-2.23-.32-4.17-1.6-6.12-2.63-15.81-9.32-31.8-18.32-47.62-27.62-3.15-1.76-6.21-3.69-9-5.99V36.1c3.83-3.78 8.81-5.98 13.34-8.77C29.1 18.19 44.82 8.98 60.66 0M5.62 38.04c2.66 2.6 6.26 3.79 9.34 5.76C30.6 53.06 46.5 61.89 62.05 71.3c.81 4.52.45 9.13.5 13.7.02 15.64-.04 31.29-.01 46.93 0 1.76.18 3.51.47 5.24 1.17-1.57 2.28-3.19 3.23-4.9 16.83-29.19 33.69-58.35 50.41-87.6 1.24-2.05 2.19-4.25 2.92-6.53-6.16-.49-12.34-.23-18.51-.27-27.35-.02-54.71-.02-82.07 0-4.45.15-8.92-.34-13.37.17M482.08 36.18c9.38-.79 19.45-.14 27.56 5.13 8.72 5.13 13.78 14.85 15.29 24.61 1.39 10.48-.11 21.92-6.58 30.57-4.17 6.01-10.58 10.26-17.55 12.3-9.6 2.73-20.17 2.69-29.46-1.16-8.28-3.46-14.85-10.55-17.87-18.97-4.35-12-3.52-26.07 3.19-37.05 5.46-8.78 15.22-14.36 25.42-15.43m.27 13.26c-6.68 1.74-12.16 7.08-14.31 13.61-3.06 9.13-2.19 20.16 4.18 27.71 7.5 8.57 21.81 9.01 30.24 1.57 5.59-4.71 7.32-12.41 7.39-19.41-.21-7.81-2.84-16.64-10.05-20.72-5.13-3.28-11.56-4.27-17.45-2.76M166.17 47.12c6.59-6.97 16.39-10 25.79-10.12 8.65-.03 17.3-.01 25.94.01.06 4.41.01 8.83.08 13.24-9.07.49-18.16-.42-27.21.36-7.31.55-14.36 5.23-16.98 12.19-2.7 6.94-2.63 15.06.45 21.87 3.25 7.12 11.1 11.25 18.73 11.37 8.31.14 16.63-.06 24.94.05.05 4.38.02 8.76.07 13.14-8.98.29-17.96.19-26.94.07-9.05.1-18.51-2.75-24.86-9.44-6.25-5.87-9.28-14.47-9.81-22.88-.86-10.65 1.82-22.3 9.8-29.86M230.12 37.02c5-.04 10-.02 15.01-.02.04 14.7-.12 29.4 0 44.1.02 4.68.94 9.9 4.81 13 6.73 5.17 16.59 4.85 23.65.51 4.22-2.63 5.22-7.93 5.19-12.54-.04-15.03-.08-30.05.1-45.07 5.03 0 10.07-.01 15.11.01-.02 15.66.09 31.32-.06 46.97.07 6.43-1.51 13.18-6.15 17.88-6.21 6.88-15.97 8.39-24.77 8.84-8.62.1-17.94-1.15-24.75-6.92-5.38-4.59-8.17-11.69-8.14-18.69-.24-16.02-.11-32.05 0-48.07M308.28 37.04c14.25-.09 28.49-.02 42.73-.04 6.26.03 12.87 2.07 17.04 6.96 4.09 5.25 5.74 12.55 3.72 18.96-1.58 5.04-5.23 9.41-10.04 11.65 4.91 1.02 9.57 4.84 9.67 10.17.47 8.14.47 16.31.61 24.47-5.01.03-10.02.16-15.03.16-.43-6.88-.19-13.78-.51-20.66.08-4.02-3.63-7.39-7.61-7.08-8.47-.2-16.95-.01-25.43-.19-.13 9.26-.12 18.52-.06 27.78-4.93.33-9.88.09-14.81.25-.17-1.81-.3-3.64-.31-5.46.08-22.32.01-44.65.03-66.97m15.1 12.95c.03 6.36.01 12.73-.1 19.1 9.23-.06 18.49.21 27.71-.23 8.95-1.89 8.44-17.95-.92-18.74-8.89-.31-17.79-.01-26.69-.13M391.51 40.44c3.99-2.54 8.76-3.67 13.47-3.46 12.34.02 24.68-.02 37.02.01 0 4.34 0 8.67-.01 13-12.34.06-24.69-.08-37.03 0-4.22-.19-7.51 4.04-7.35 8.05-.04 3.71 2.94 6.94 6.47 7.76 8.41 1.09 17.01.66 25.32 2.56 5.8 1.27 11.27 5.11 13.43 10.8 3.02 7.84 2.13 17.61-3.54 24.06-3.82 4.32-9.8 5.89-15.38 5.97-13.11.34-26.22.17-39.33.24-.42-4.39-.26-8.8-.18-13.19 9.52.38 19.05.02 28.57.12 3.92-.09 7.92.32 11.79-.53 5.96-2.23 6.32-12.67-.05-14.62-9.57-2.48-19.77-1.07-29.31-3.84-4.13-1.26-8.12-3.75-10.21-7.65-5.44-9.42-3.16-23.3 6.32-29.28M535.79 36.98c14.08.04 28.16.01 42.24.01 5.35-.01 10.92 1.31 15.14 4.74 3.55 2.84 5.37 7.19 6.83 11.37v8.21c-1.73 5.5-5.34 10.32-10.41 13.15 4.29 1.46 8.63 4.66 9.17 9.49.86 8.42.21 16.92.71 25.36-5.1.22-10.2.28-15.3.12-.31-6.85 0-13.72-.27-20.57-.04-3.63-3.03-7.38-6.88-7.15-8.72-.28-17.45.08-26.17-.13.13 9.22-.02 18.45.11 27.67-5.02.27-10.04.19-15.06.34-.32-24.2-.39-48.41-.11-72.61m15.09 12.97c.08 6.38.06 12.76-.06 19.13 7.73.03 15.46-.03 23.19-.02 2.28-.06 4.77.13 6.77-1.23 6.25-4.13 5.04-16.2-2.83-17.68-9.01-.44-18.05.04-27.07-.2"/></g><path fill="#fff" d="M5.62 38.04c4.45-.51 8.92-.02 13.37-.17 27.36-.02 54.72-.02 82.07 0 6.17.04 12.35-.22 18.51.27-.73 2.28-1.68 4.48-2.92 6.53-16.72 29.25-33.58 58.41-50.41 87.6-.95 1.71-2.06 3.33-3.23 4.9-.29-1.73-.47-3.48-.47-5.24-.03-15.64.03-31.29.01-46.93-.05-4.57.31-9.18-.5-13.7C46.5 61.89 30.6 53.06 14.96 43.8c-3.08-1.97-6.68-3.16-9.34-5.76"/></svg>

<?xml version="1.0" encoding="UTF-8" ?>
<!DOCTYPE svg PUBLIC "-//W3C//DTD SVG 1.1//EN" "http://www.w3.org/Graphics/SVG/1.1/DTD/svg11.dtd">
<svg width="600pt" height="146pt" viewBox="0 0 600 146" version="1.1"
    xmlns="http://www.w3.org/2000/svg">
    <g id="#26241eff">
        <path fill="#26241e" opacity="1.00" d=" M 60.66 0.00 L 64.42 0.00 C 82.67 10.62 100.99 21.12 119.25 31.72 C 121.24 33.01 123.54 34.18 124.72 36.34 C 125.34 39.17 125.06 42.10 125.11 44.98 C 125.07 63.63 125.08 82.28 125.11 100.93 C 125.07 102.84 125.14 104.79 124.73 106.68 C 123.53 108.54 121.50 109.62 119.68 110.77 C 104.03 119.72 88.45 128.80 72.85 137.83 C 69.53 139.68 66.36 141.91 62.74 143.17 C 60.51 142.85 58.57 141.57 56.62 140.54 C 40.81 131.22 24.82 122.22 9.00 112.92 C 5.85 111.16 2.79 109.23 0.00 106.93 L 0.00 36.10 C 3.83 32.32 8.81 30.12 13.34 27.33 C 29.10 18.19 44.82 8.98 60.66 0.00 M 5.62 38.04 C 8.28 40.64 11.88 41.83 14.96 43.80 C 30.60 53.06 46.50 61.89 62.05 71.30 C 62.86 75.82 62.50 80.43 62.55 85.00 C 62.57 100.64 62.51 116.29 62.54 131.93 C 62.54 133.69 62.72 135.44 63.01 137.17 C 64.18 135.60 65.29 133.98 66.24 132.27 C 83.07 103.08 99.93 73.92 116.65 44.67 C 117.89 42.62 118.84 40.42 119.57 38.14 C 113.41 37.65 107.23 37.91 101.06 37.87 C 73.71 37.85 46.35 37.85 18.99 37.87 C 14.54 38.02 10.07 37.53 5.62 38.04 Z" />
        <path fill="#26241e" opacity="1.00" d=" M 482.08 36.18 C 491.46 35.39 501.53 36.04 509.64 41.31 C 518.36 46.44 523.42 56.16 524.93 65.92 C 526.32 76.40 524.82 87.84 518.35 96.49 C 514.18 102.50 507.77 106.75 500.80 108.79 C 491.20 111.52 480.63 111.48 471.34 107.63 C 463.06 104.17 456.49 97.08 453.47 88.66 C 449.12 76.66 449.95 62.59 456.66 51.61 C 462.12 42.83 471.88 37.25 482.08 36.18 M 482.35 49.44 C 475.67 51.18 470.19 56.52 468.04 63.05 C 464.98 72.18 465.85 83.21 472.22 90.76 C 479.72 99.33 494.03 99.77 502.46 92.33 C 508.05 87.62 509.78 79.92 509.85 72.92 C 509.64 65.11 507.01 56.28 499.80 52.20 C 494.67 48.92 488.24 47.93 482.35 49.44 Z" />
        <path fill="#26241e" opacity="1.00" d=" M 166.17 47.12 C 172.76 40.15 182.56 37.12 191.96 37.00 C 200.61 36.97 209.26 36.99 217.90 37.01 C 217.96 41.42 217.91 45.84 217.98 50.25 C 208.91 50.74 199.82 49.83 190.77 50.61 C 183.46 51.16 176.41 55.84 173.79 62.80 C 171.09 69.74 171.16 77.86 174.24 84.67 C 177.49 91.79 185.34 95.92 192.97 96.04 C 201.28 96.18 209.60 95.98 217.91 96.09 C 217.96 100.47 217.93 104.85 217.98 109.23 C 209.00 109.52 200.02 109.42 191.04 109.30 C 181.99 109.40 172.53 106.55 166.18 99.86 C 159.93 93.99 156.90 85.39 156.37 76.98 C 155.51 66.33 158.19 54.68 166.17 47.12 Z" />
        <path fill="#26241e" opacity="1.00" d=" M 230.12 37.02 C 235.12 36.98 240.12 37.00 245.13 37.00 C 245.17 51.70 245.01 66.40 245.13 81.10 C 245.15 85.78 246.07 91.00 249.94 94.10 C 256.67 99.27 266.53 98.95 273.59 94.61 C 277.81 91.98 278.81 86.68 278.78 82.07 C 278.74 67.04 278.70 52.02 278.88 37.00 C 283.91 37.00 288.95 36.99 293.99 37.01 C 293.97 52.67 294.08 68.33 293.93 83.98 C 294.00 90.41 292.42 97.16 287.78 101.86 C 281.57 108.74 271.81 110.25 263.01 110.70 C 254.39 110.80 245.07 109.55 238.26 103.78 C 232.88 99.19 230.09 92.09 230.12 85.09 C 229.88 69.07 230.01 53.04 230.12 37.02 Z" />
        <path fill="#26241e" opacity="1.00" d=" M 308.28 37.04 C 322.53 36.95 336.77 37.02 351.01 37.00 C 357.27 37.03 363.88 39.07 368.05 43.96 C 372.14 49.21 373.79 56.51 371.77 62.92 C 370.19 67.96 366.54 72.33 361.73 74.57 C 366.64 75.59 371.30 79.41 371.40 84.74 C 371.87 92.88 371.87 101.05 372.01 109.21 C 367.00 109.24 361.99 109.37 356.98 109.37 C 356.55 102.49 356.79 95.59 356.47 88.71 C 356.55 84.69 352.84 81.32 348.86 81.63 C 340.39 81.43 331.91 81.62 323.43 81.44 C 323.30 90.70 323.31 99.96 323.37 109.22 C 318.44 109.55 313.49 109.31 308.56 109.47 C 308.39 107.66 308.26 105.83 308.25 104.01 C 308.33 81.69 308.26 59.36 308.28 37.04 M 323.38 49.99 C 323.41 56.35 323.39 62.72 323.28 69.09 C 332.51 69.03 341.77 69.30 350.99 68.86 C 359.94 66.97 359.43 50.91 350.07 50.12 C 341.18 49.81 332.28 50.11 323.38 49.99 Z" />
        <path fill="#26241e" opacity="1.00" d=" M 391.51 40.44 C 395.50 37.90 400.27 36.77 404.98 36.98 C 417.32 37.00 429.66 36.96 442.00 36.99 C 442.00 41.33 442.00 45.66 441.99 49.99 C 429.65 50.05 417.30 49.91 404.96 49.99 C 400.74 49.80 397.45 54.03 397.61 58.04 C 397.57 61.75 400.55 64.98 404.08 65.80 C 412.49 66.89 421.09 66.46 429.40 68.36 C 435.20 69.63 440.67 73.47 442.83 79.16 C 445.85 87.00 444.96 96.77 439.29 103.22 C 435.47 107.54 429.49 109.11 423.91 109.19 C 410.80 109.53 397.69 109.36 384.58 109.43 C 384.16 105.04 384.32 100.63 384.40 96.24 C 393.92 96.62 403.45 96.26 412.97 96.36 C 416.89 96.27 420.89 96.68 424.76 95.83 C 430.72 93.60 431.08 83.16 424.71 81.21 C 415.14 78.73 404.94 80.14 395.40 77.37 C 391.27 76.11 387.28 73.62 385.19 69.72 C 379.75 60.30 382.03 46.42 391.51 40.44 Z" />
        <path fill="#26241e" opacity="1.00" d=" M 535.79 36.98 C 549.87 37.02 563.95 36.99 578.03 36.99 C 583.38 36.98 588.95 38.30 593.17 41.73 C 596.72 44.57 598.54 48.92 600.00 53.10 L 600.00 61.31 C 598.27 66.81 594.66 71.63 589.59 74.46 C 593.88 75.92 598.22 79.12 598.76 83.95 C 599.62 92.37 598.97 100.87 599.47 109.31 C 594.37 109.53 589.27 109.59 584.17 109.43 C 583.86 102.58 584.17 95.71 583.90 88.86 C 583.86 85.23 580.87 81.48 577.02 81.71 C 568.30 81.43 559.57 81.79 550.85 81.58 C 550.98 90.80 550.83 100.03 550.96 109.25 C 545.94 109.52 540.92 109.44 535.90 109.59 C 535.58 85.39 535.51 61.18 535.79 36.98 M 550.88 49.95 C 550.96 56.33 550.94 62.71 550.82 69.08 C 558.55 69.11 566.28 69.05 574.01 69.06 C 576.29 69.00 578.78 69.19 580.78 67.83 C 587.03 63.70 585.82 51.63 577.95 50.15 C 568.94 49.71 559.90 50.19 550.88 49.95 Z" />
    </g>
    <g id="#ffffffff">
        <path fill="#ffffff" opacity="1.00" d=" M 5.62 38.04 C 10.07 37.53 14.54 38.02 18.99 37.87 C 46.35 37.85 73.71 37.85 101.06 37.87 C 107.23 37.91 113.41 37.65 119.57 38.14 C 118.84 40.42 117.89 42.62 116.65 44.67 C 99.93 73.92 83.07 103.08 66.24 132.27 C 65.29 133.98 64.18 135.60 63.01 137.17 C 62.72 135.44 62.54 133.69 62.54 131.93 C 62.51 116.29 62.57 100.64 62.55 85.00 C 62.50 80.43 62.86 75.82 62.05 71.30 C 46.50 61.89 30.60 53.06 14.96 43.80 C 11.88 41.83 8.28 40.64 5.62 38.04 Z" />
    </g>
</svg>
